X:314
T:Trip to Pakistan
C:Niall Kenny
S:Munro Gauld, flautist, Edinburgh
Z:Nigel Gatherer
L:1/8
M:4/4
K:Em
EGBE G3 B|A2 AG FGAF|EGBE G3 B|AGFG E3 z:|
EGBE c3 A|B2 Bd BABG|EGBE c3 A|BAGB A3 z:|
FGBF GBFG|EFGE FGEF|DFAD FADA|AGFG E3 z:|
<end>
<start>
